Yaru++/actions/16/node-segment-line.svg

<svg viewBox="0 0 24 24" xmlns="http://www.w3.org/2000/svg">
  <path d="m17.646484 5.6464844-11.9999996 11.9999996.7070312.707032 12.0000004-12.0000004z" fill="#808080"/>
  <path d="m17 4v3h3v-3zm1 1h1v1h-1zm-14 12v3h3v-3zm1 1h1v1h-1z" fill="#0084ff"/>
</svg>

<svg xmlns="http://www.w3.org/2000/svg" viewBox="0 0 24 24">
 <defs>
  <style id="current-color-scheme" type="text/css">
   .ColorScheme-Text { color:#808080; } .ColorScheme-Highlight { color:#1d99f3; }
  </style>
 </defs>
 <path style="fill:currentColor" class="ColorScheme-Text" d="M 17.646484 5.6464844 L 5.6464844 17.646484 L 6.3535156 18.353516 L 18.353516 6.3535156 L 17.646484 5.6464844 z"/>
 <path style="fill:currentColor" class="ColorScheme-Highlight" d="M 17 4 L 17 7 L 20 7 L 20 4 L 17 4 z M 18 5 L 19 5 L 19 6 L 18 6 L 18 5 z M 4 17 L 4 20 L 7 20 L 7 17 L 4 17 z M 5 18 L 6 18 L 6 19 L 5 19 L 5 18 z"/>
</svg>
